dist/svg/error.svg

<!-- Generated by Trend Micro Style Portal -->
<svg version="1.1" xmlns="http://www.w3.org/2000/svg" width="16" height="16" viewBox="0 0 16 16">
  <title>error</title>
  <path fill="rgb(34,34,34)" d="M8 0c-4.418 0-8 3.582-8 8s3.582 8 8 8c4.418 0 8-3.582 8-8v0c0-4.418-3.582-8-8-8v0zM11 12l-3-3-3 3-1.060-1.060 3.060-2.94-3-3 1.060-1.070 2.94 2.95 2.94-2.94 1.060 1.060-2.89 3 3 3z"></path>
</svg>

<svg width="16" height="16" viewBox="0 0 16 16" fill="rgb(34, 34, 34)" xmlns="http://www.w3.org/2000/svg"><title>error</title><path d="M8 0C3.582 0 0 3.582 0 8C0 12.418 3.582 16 8 16C12.418 16 16 12.418 16 8C16 3.582 12.418 0 8 0ZM11 12L8 9L5 12L3.94 10.94L7 8L4 5L5.06 3.93L8 6.88L10.94 3.94L12 5L9.11 8L12.11 11L11 12Z" fill="rgb(34, 34, 34)" fill-opacity="1.00"/></svg>
